X:131
T:Reel 131
M:4/4
K:Gmaj
L:1/8
dc|BGAF DGG2|dGBG dGBc|BGAG DGA2|AGAB c2dc|BGAF DGG2|BGBd g2fg|afge fdec|AGFG AcBG|d|gfgd BGBd|gfge fdcA|gfgd BcBG|AFGB cBAc|BGBG dGBG|gfef g2ga|bgaf gefde^c|dcBA G2|
